X:1
T:"Degelundsbäckingen" Hambopolska efter Aina Liljebjörn
R:Hambo
S:Efter Aina Liljebjörn
O:Gustafsfors, Värmland
B:
Z:ABC-transkribering av Per Saxholm
M:3/4
L:1/8
K:G
|DBB4|Ecc4|d2dcBA|GBdBG2|DBB4|Ecc4|d2dcBA|G2G4:|c2cege|dBGBd2|d2dcBA|GBdBG2|c2cege|dBGBd2|d2dcBA|G2G4:|

